X:5012
T:Derryadd Bay
M:6/8
L:1/8
Q:180
C:Aidan Crossey
R:Jig
K:D
|:DED|F2A BAF|A2F DED|F2A BAF|E3 DED|
F2A BAF|d2e fed|BdB AFE|D3:||
|:ABA|d2e fed|e2d ABA|d2e fed|e3 efe|
d2e fed|e2d dcd|BdB AFE|D3:||
